icons/LinkVertical_filled.svg

<svg width="24" height="24" viewBox="0 0 24 24" fill="none" xmlns="http://www.w3.org/2000/svg">
<path fill-rule="evenodd" clip-rule="evenodd" d="M12,22.25c-3.45178,0 -6.25,-2.7982 -6.25,-6.25v-1.5c0,-0.6904 0.55964,-1.25 1.25,-1.25c0.69036,0 1.25,0.5596 1.25,1.25v1.5c0,2.0711 1.67893,3.75 3.75,3.75c2.0711,0 3.75,-1.6789 3.75,-3.75v-1.5c0,-0.6904 0.5596,-1.25 1.25,-1.25c0.6904,0 1.25,0.5596 1.25,1.25v1.5c0,3.4518 -2.7982,6.25 -6.25,6.25zM12,17.25c-0.6904,0 -1.25,-0.5596 -1.25,-1.25v-8c0,-0.69036 0.5596,-1.25 1.25,-1.25c0.6904,0 1.25,0.55964 1.25,1.25v8c0,0.6904 -0.5596,1.25 -1.25,1.25zM5.75,8c0,-3.45178 2.79822,-6.25 6.25,-6.25c3.4518,0 6.25,2.79822 6.25,6.25v1.5c0,0.6904 -0.5596,1.25 -1.25,1.25c-0.6904,0 -1.25,-0.5596 -1.25,-1.25v-1.5c0,-2.07107 -1.6789,-3.75 -3.75,-3.75c-2.07107,0 -3.75,1.67893 -3.75,3.75v1.5c0,0.6904 -0.55964,1.25 -1.25,1.25c-0.69036,0 -1.25,-0.5596 -1.25,-1.25z" fill="#002B51"/>
</svg>

<svg width="24" height="24" viewBox="0 0 24 24" fill="none" xmlns="http://www.w3.org/2000/svg">
<path fill-rule="evenodd" clip-rule="evenodd" d="M12 22.25C8.54822 22.25 5.75 19.4518 5.75 16V14.5C5.75 13.8096 6.30964 13.25 7 13.25C7.69036 13.25 8.25 13.8096 8.25 14.5V16C8.25 18.0711 9.92893 19.75 12 19.75C14.0711 19.75 15.75 18.0711 15.75 16V14.5C15.75 13.8096 16.3096 13.25 17 13.25C17.6904 13.25 18.25 13.8096 18.25 14.5V16C18.25 19.4518 15.4518 22.25 12 22.25ZM12 17.25C11.3096 17.25 10.75 16.6904 10.75 16V8C10.75 7.30964 11.3096 6.75 12 6.75C12.6904 6.75 13.25 7.30964 13.25 8V16C13.25 16.6904 12.6904 17.25 12 17.25ZM5.75 9.5C5.75 10.1904 6.30964 10.75 7 10.75C7.69036 10.75 8.25 10.1904 8.25 9.5V8C8.25 5.92893 9.92893 4.25 12 4.25C14.0711 4.25 15.75 5.92893 15.75 8V9.5C15.75 10.1904 16.3096 10.75 17 10.75C17.6904 10.75 18.25 10.1904 18.25 9.5V8C18.25 4.54822 15.4518 1.75 12 1.75C8.54822 1.75 5.75 4.54822 5.75 8V9.5Z" fill="#002B51"/>
</svg>
